dist/img/svg/quality.svg

<svg width="81" height="81" viewBox="0 0 81 81" fill="none" xmlns="http://www.w3.org/2000/svg">
<path d="M55.1689 13.0035H56.8158V14.6175C56.8158 14.9076 56.931 15.1858 57.1362 15.3909C57.3413 15.5961 57.6195 15.7113 57.9096 15.7113C58.1996 15.7113 58.4778 15.5961 58.683 15.3909C58.8881 15.1858 59.0033 14.9076 59.0033 14.6175V13.0035H60.6174C60.9075 13.0035 61.1857 12.8882 61.3908 12.6831C61.5959 12.478 61.7111 12.1998 61.7111 11.9097C61.7111 11.6196 61.5959 11.3414 61.3908 11.1363C61.1857 10.9312 60.9075 10.816 60.6174 10.816H59.0033V9.17066C59.0033 8.88057 58.8881 8.60238 58.683 8.39726C58.4778 8.19214 58.1996 8.0769 57.9096 8.0769C57.6195 8.0769 57.3413 8.19214 57.1362 8.39726C56.931 8.60238 56.8158 8.88057 56.8158 9.17066V10.816H55.1689C54.8789 10.816 54.6007 10.9312 54.3955 11.1363C54.1904 11.3414 54.0752 11.6196 54.0752 11.9097C54.0752 12.1998 54.1904 12.478 54.3955 12.6831C54.6007 12.8882 54.8789 13.0035 55.1689 13.0035Z" fill="#439539"/>
<path d="M36.2182 36.7438L40.5354 40.1469C40.9474 40.4737 41.4579 40.6515 41.9838 40.6515C42.5097 40.6515 43.0202 40.4737 43.4322 40.1469L47.7494 36.7438C48.3597 36.266 48.8528 35.6552 49.1913 34.958C49.5298 34.2607 49.7046 33.4954 49.7025 32.7204V31.9907C49.7019 31.095 49.4522 30.2171 48.9812 29.4552C48.5103 28.6933 47.8367 28.0774 47.0357 27.6764C46.2348 27.2755 45.3381 27.1052 44.4459 27.1847C43.5537 27.2642 42.7012 27.5904 41.9838 28.1266C41.2665 27.5902 40.4141 27.2639 39.522 27.1844C38.6298 27.1048 37.7331 27.275 36.9322 27.6761C36.1313 28.0771 35.4578 28.693 34.9871 29.455C34.5163 30.217 34.2668 31.095 34.2666 31.9907V32.7204C34.2642 33.4953 34.4388 34.2606 34.777 34.9578C35.1152 35.6551 35.6081 36.2659 36.2182 36.7438ZM36.4541 31.9907C36.4528 31.4449 36.6209 30.9122 36.9351 30.466C37.2493 30.0198 37.6943 29.682 38.2085 29.4993C38.7228 29.3165 39.281 29.2978 39.8064 29.4457C40.3317 29.5936 40.7982 29.9009 41.1416 30.3251C41.2442 30.4508 41.3735 30.5522 41.5201 30.6218C41.6667 30.6915 41.827 30.7276 41.9893 30.7276C42.1516 30.7276 42.3118 30.6915 42.4585 30.6218C42.6051 30.5522 42.7343 30.4508 42.8369 30.3251C43.1803 29.9009 43.6468 29.5936 44.1721 29.4457C44.6975 29.2978 45.2558 29.3165 45.77 29.4993C46.2843 29.682 46.7292 30.0198 47.0434 30.466C47.3576 30.9122 47.5257 31.4449 47.5244 31.9907V32.7204C47.5255 33.1645 47.4253 33.6031 47.2314 34.0027C47.0376 34.4023 46.7552 34.7525 46.4057 35.0266L42.0885 38.4297C42.0613 38.4504 42.0281 38.4616 41.9939 38.4616C41.9598 38.4616 41.9266 38.4504 41.8994 38.4297L37.5651 35.0266C37.2156 34.7525 36.9331 34.4023 36.7393 34.0027C36.5454 33.6031 36.4452 33.1645 36.4463 32.7204L36.4541 31.9907Z" fill="#439539"/>
<path d="M60.9381 61.7409C61.5537 60.9752 61.9768 60.073 62.1719 59.1101C62.367 58.1471 62.3285 57.1514 62.0595 56.2065C61.7904 55.2615 61.2988 54.3948 60.6258 53.6789C59.9528 52.9631 59.118 52.4191 58.1914 52.0924C57.2647 51.7657 56.2733 51.6658 55.3002 51.8013C54.327 51.9367 53.4005 52.3034 52.5983 52.8707C51.7961 53.438 51.1416 54.1894 50.6896 55.0618C50.2376 55.9342 50.0014 56.9022 50.0006 57.8847C49.9977 59.3112 50.4953 60.6936 51.4068 61.7909C49.4384 62.6229 47.858 64.1693 46.9834 66.1191C46.4239 65.7137 45.8167 65.3783 45.1756 65.1206C45.8801 64.2472 46.332 63.1975 46.4822 62.0855C46.6325 60.9734 46.4754 59.8415 46.028 58.8124C45.5806 57.7833 44.8599 56.8964 43.9442 56.2478C43.0285 55.5992 41.9527 55.2137 40.8334 55.1331C39.9898 55.0689 39.1421 55.1811 38.3442 55.4625C37.5463 55.7438 36.8157 56.1883 36.199 56.7675C35.5827 57.3434 35.0911 58.0396 34.7546 58.8131C34.4181 59.5866 34.2439 60.4209 34.2428 61.2644C34.2399 62.6909 34.7375 64.0733 35.649 65.1706C35.0338 65.4294 34.452 65.7615 33.9162 66.1597C33.0262 64.1413 31.3811 62.5518 29.3334 61.7316C30.0373 60.858 30.4887 59.8083 30.6387 58.6965C30.7887 57.5846 30.6315 56.4529 30.1841 55.4241C29.7368 54.3952 29.0164 53.5083 28.101 52.8596C27.1857 52.211 26.1102 51.8252 24.9912 51.7441C24.1476 51.6799 23.2999 51.792 22.502 52.0734C21.7041 52.3548 20.9735 52.7992 20.3568 53.3785C19.7403 53.9559 19.2489 54.6538 18.9132 55.429C18.5775 56.2041 18.4046 57.04 18.4053 57.8847C18.4024 59.3112 18.9 60.6936 19.8115 61.7909C18.2769 62.4404 16.9677 63.528 16.0478 64.9175C15.128 66.3071 14.6381 67.937 14.6397 69.6034V73.1362C14.6397 73.8407 14.9195 74.5164 15.4176 75.0145C15.9158 75.5126 16.5914 75.7925 17.2959 75.7925H30.4865V76.5206C30.4865 77.2251 30.7664 77.9007 31.2645 78.3989C31.7627 78.897 32.4383 79.1769 33.1428 79.1769H47.8272C48.5316 79.1769 49.2073 78.897 49.7054 78.3989C50.2036 77.9007 50.4834 77.2251 50.4834 76.5206V75.7925H63.5881C64.2926 75.7925 64.9682 75.5126 65.4664 75.0145C65.9645 74.5164 66.2444 73.8407 66.2444 73.1362V69.6112C66.2502 67.9188 65.7474 66.2636 64.8013 64.8603C63.8551 63.457 62.5092 62.3702 60.9381 61.7409ZM30.4693 72.9909V73.605H17.285C17.1606 73.605 17.0414 73.5556 16.9535 73.4677C16.8656 73.3798 16.8162 73.2606 16.8162 73.1362V69.6112C16.8145 68.288 17.23 66.9979 18.0037 65.9244C18.7773 64.8508 19.8698 64.0486 21.1256 63.6316C21.4104 63.5379 21.666 63.3721 21.8679 63.1504C22.0697 62.9288 22.2108 62.6587 22.2774 62.3664C22.3441 62.0741 22.3341 61.7696 22.2483 61.4823C22.1626 61.195 22.0041 60.9348 21.7881 60.7269C21.2224 60.1782 20.8333 59.4732 20.6706 58.7021C20.5079 57.931 20.579 57.1289 20.8748 56.3984C21.1707 55.6679 21.6778 55.0424 22.3312 54.6018C22.9846 54.1612 23.7547 53.9257 24.5428 53.9253C24.6381 53.9253 24.7365 53.9253 24.8334 53.9363C25.7911 54.0058 26.6908 54.421 27.3651 55.1046C28.0395 55.7881 28.4424 56.6934 28.499 57.6519C28.499 57.7269 28.499 57.8081 28.499 57.8753C28.4997 58.4025 28.3954 58.9246 28.192 59.411C27.9887 59.8973 27.6904 60.3383 27.3147 60.7081C27.1012 60.9157 26.9457 61.1754 26.8635 61.4615C26.7813 61.7476 26.7752 62.0502 26.8459 62.3394C26.9157 62.6339 27.0612 62.9051 27.2682 63.126C27.4751 63.3469 27.7362 63.5099 28.0256 63.5988C29.0195 63.9067 29.921 64.4574 30.6488 65.201C31.3766 65.9447 31.9078 66.8578 32.1943 67.8581C31.0743 69.3362 30.4704 71.1411 30.4756 72.9956L30.4693 72.9909ZM48.2959 76.5206C48.2959 76.6449 48.2465 76.7642 48.1586 76.8521C48.0707 76.94 47.9515 76.9894 47.8272 76.9894H33.1318C33.0075 76.9894 32.8883 76.94 32.8004 76.8521C32.7125 76.7642 32.6631 76.6449 32.6631 76.5206V72.9956C32.6621 71.6725 33.0779 70.3828 33.8515 69.3094C34.625 68.236 35.717 67.4335 36.9725 67.0159C37.2572 66.9222 37.5129 66.7565 37.7147 66.5348C37.9166 66.3131 38.0577 66.043 38.1243 65.7508C38.191 65.4585 38.181 65.1539 38.0952 64.8667C38.0095 64.5794 37.8509 64.3192 37.635 64.1113C37.0693 63.5626 36.6801 62.8576 36.5174 62.0865C36.3547 61.3153 36.4259 60.5132 36.7217 59.7828C37.0176 59.0523 37.5246 58.4268 38.1781 57.9862C38.8315 57.5456 39.6016 57.3101 40.3897 57.3097C40.4865 57.3097 40.5834 57.3097 40.6803 57.3206C41.4396 57.3758 42.1669 57.6487 42.775 58.1068C43.3831 58.5648 43.8461 59.1885 44.1087 59.9031C44.3712 60.6177 44.4221 61.3929 44.2552 62.1357C44.0884 62.8784 43.7108 63.5573 43.1678 64.0909C42.9549 64.2992 42.7998 64.5591 42.7176 64.8454C42.6354 65.1316 42.629 65.4343 42.699 65.7238C42.7689 66.0182 42.9146 66.2893 43.1215 66.5102C43.3284 66.7311 43.5894 66.8941 43.8787 66.9831C45.1613 67.3809 46.2825 68.1796 47.0776 69.2618C47.8727 70.3441 48.2997 71.6527 48.2959 72.9956V76.5206ZM64.0553 73.1362C64.0553 73.2606 64.0059 73.3798 63.918 73.4677C63.8301 73.5556 63.7109 73.605 63.5865 73.605H50.4834V72.9956C50.4883 71.1043 49.8596 69.2659 48.6975 67.7738C48.9894 66.8106 49.5083 65.9316 50.2106 65.2108C50.913 64.49 51.7782 63.9484 52.7334 63.6316C53.0181 63.5377 53.2736 63.3718 53.4752 63.15C53.6769 62.9283 53.8178 62.6582 53.8843 62.3659C53.9508 62.0736 53.9406 61.7692 53.8548 61.482C53.7689 61.1948 53.6103 60.9347 53.3943 60.7269C52.8286 60.1782 52.4395 59.4732 52.2768 58.7021C52.1141 57.931 52.1852 57.1289 52.4811 56.3984C52.7769 55.6679 53.284 55.0424 53.9375 54.6018C54.5909 54.1612 55.3609 53.9257 56.149 53.9253C56.2459 53.9253 56.3443 53.9253 56.4412 53.9363C57.3985 54.0058 58.2978 54.4209 58.9719 55.1041C59.6459 55.7873 60.0487 56.6922 60.1053 57.6503C60.1053 57.7253 60.1053 57.8066 60.1053 57.8753C60.106 58.4025 60.0016 58.9246 59.7983 59.411C59.5949 59.8973 59.2966 60.3383 58.9209 60.7081C58.7072 60.9155 58.5515 61.1752 58.4693 61.4613C58.3871 61.7475 58.3812 62.0502 58.4522 62.3394C58.5219 62.6339 58.6675 62.9051 58.8744 63.126C59.0814 63.3469 59.3425 63.5099 59.6318 63.5988C60.9143 63.9965 62.0352 64.7952 62.8298 65.8775C63.6244 66.9598 64.0506 68.2686 64.0459 69.6112L64.0553 73.1362Z" fill="#439539"/>
<path d="M41.9102 51.3003H41.9602C46.7397 51.3017 51.3327 49.4452 54.7687 46.1229C58.2047 42.8006 60.2148 38.2728 60.3742 33.4959C60.5336 28.7191 58.83 24.0673 55.6231 20.5233C52.4162 16.9793 47.9573 14.8207 43.1884 14.5034V11.3784C43.5216 11.4134 43.8564 11.4312 44.1915 11.4315C45.5055 11.4315 47.2759 11.1565 48.7024 9.94247C50.4212 8.4784 51.179 6.08465 50.943 2.82684C50.9242 2.56479 50.8117 2.31827 50.6261 2.13236C50.4405 1.94644 50.1941 1.83356 49.9321 1.81434C46.6743 1.5784 44.2805 2.33465 42.8165 4.05653C42.5708 4.34686 42.3546 4.6609 42.1712 4.99403C41.9877 4.6609 41.7715 4.34686 41.5259 4.05653C40.0618 2.33778 37.6665 1.5784 34.4102 1.81434C34.1483 1.83517 33.9027 1.94958 33.7182 2.13664C33.5337 2.32371 33.4227 2.57092 33.4055 2.83309C33.1712 6.0909 33.9243 8.48465 35.6477 9.94872C37.0743 11.1628 38.8446 11.4378 40.1571 11.4378C40.4696 11.4378 40.7587 11.4222 41.0087 11.3987V14.4878C39.2137 14.578 37.4417 14.9312 35.7493 15.5362C33.1445 16.4767 30.7832 17.9881 28.8384 19.9597C26.294 22.5441 24.5692 25.8222 23.8803 29.3829C23.1914 32.9436 23.569 36.6285 24.9658 39.9755C26.3626 43.3224 28.7165 46.1825 31.7322 48.1972C34.7479 50.2118 38.2913 51.2913 41.918 51.3003H41.9102ZM44.4821 5.47997C45.3384 4.47372 46.7868 3.9659 48.7977 3.9659C48.7977 5.97215 48.293 7.41903 47.293 8.27528C46.1243 9.27528 44.4805 9.3034 43.543 9.22215C43.4649 8.29247 43.493 6.64247 44.4821 5.47997ZM40.7977 9.22059C39.8602 9.3034 38.2165 9.27528 37.0477 8.28309C36.0477 7.42684 35.543 5.97997 35.543 3.97372C37.5493 3.97372 38.9946 4.4784 39.8509 5.4784C40.8524 6.63934 40.8805 8.29247 40.7977 9.22059ZM55.3415 23.6909C57.213 26.4054 58.2076 29.6282 58.1915 32.9253C58.1896 33.4963 58.1578 34.0669 58.0962 34.6347C57.6274 33.8737 57.4055 33.7987 57.1946 33.7284C56.929 33.6393 55.454 32.969 54.1368 32.3112C54.1051 32.2959 54.0752 32.277 54.0477 32.255C54.0196 32.0987 54.204 31.644 54.2852 31.4472C54.3827 31.2277 54.4596 30.9996 54.5149 30.7659C54.6555 30.0612 54.1946 29.3331 53.6602 28.4909C53.4633 28.1784 53.1352 27.6628 53.0946 27.4925C52.8774 26.1909 51.1493 25.6175 49.3196 25.005C46.8055 24.1659 44.9368 23.3175 43.7665 22.4815L43.7165 22.444C43.9642 22.1743 44.2368 21.9284 44.5305 21.7097C45.143 21.2206 45.7227 20.7581 45.7212 20.0628C45.743 19.7503 46.2477 18.5159 46.8149 17.3909C50.281 18.4796 53.2827 20.6975 55.3415 23.6909ZM30.3899 21.494C33.2548 18.5738 37.1203 16.8485 41.2071 16.6659C41.4493 16.655 41.6993 16.6487 41.9524 16.6487H41.9993C42.988 16.6513 43.9744 16.7444 44.9462 16.9268C44.5415 17.7597 43.9696 19.0425 43.8618 19.819C43.7462 19.9331 43.518 20.1159 43.3571 20.244C42.6462 20.8128 41.7602 21.5206 41.7946 22.53C41.8055 22.9222 41.968 23.4972 42.6821 24.0081C44.0227 24.9659 46.0024 25.8737 48.7321 26.7831C49.4618 27.0268 50.9618 27.5268 51.2633 27.8768C51.368 28.3722 51.6993 28.8956 52.0805 29.4956C52.2939 29.8127 52.485 30.1442 52.6524 30.4878C52.6258 30.5628 52.5852 30.6628 52.5524 30.7425C52.2868 31.394 51.5821 33.1284 53.304 33.9893C54.3399 34.5081 55.7446 35.1675 56.3837 35.4253C56.7972 36.1284 57.1692 36.8552 57.4977 37.6018C56.999 39.2487 56.2393 40.8049 55.2477 42.2112C54.7489 42.9207 54.1946 43.5895 53.5899 44.2112C52.082 45.7689 50.2751 47.006 48.2775 47.8486C46.28 48.6911 44.1329 49.1216 41.9649 49.1143H41.9196C39.8988 49.1086 37.897 48.7238 36.018 47.98C36.5027 47.4039 36.8142 46.7023 36.9165 45.9565C37.0172 45.1721 36.8167 44.3787 36.3555 43.7362L36.2259 43.58L36.0399 43.4862C35.2837 43.1065 34.493 42.2581 34.0509 41.7143C34.3446 40.555 34.7227 38.5768 34.1837 37.6159C34.0964 37.4527 33.9771 37.3088 33.833 37.1928C33.6888 37.0769 33.5227 36.9912 33.3446 36.9409C31.8023 36.5124 30.4436 35.589 29.4774 34.3128C29.4337 32.3503 27.5602 28.8143 26.7134 27.3128C26.7399 27.2409 26.7634 27.169 26.7899 27.0972C27.5872 24.9994 28.8133 23.0911 30.3899 21.494ZM25.9915 29.944C26.9555 31.869 27.6946 33.7534 27.5993 34.4503L27.5555 34.7706L27.7196 35.0503C27.7821 35.1581 29.2649 37.6347 32.5759 38.6628C32.643 39.1815 32.4493 40.5018 32.1227 41.6581L32.0009 42.0909L32.2618 42.4581C32.3149 42.5315 33.5009 44.1768 34.9493 45.0206C35.0488 45.2446 35.0855 45.4914 35.0555 45.7347C35.0009 46.1878 34.7227 46.6722 34.243 47.155C31.6596 45.7636 29.5028 43.6965 28.0029 41.1745C26.5031 38.6525 25.7166 35.7705 25.7274 32.8362C25.7302 31.8663 25.8186 30.8985 25.9915 29.944Z" fill="#439539"/>
</svg>

<svg width="81" height="81" fill="none" xmlns="http://www.w3.org/2000/svg"><path d="M55.169 13.004h1.647v1.614a1.093 1.093 0 102.187 0v-1.614h1.614a1.094 1.094 0 000-2.188h-1.614V9.171a1.094 1.094 0 10-2.187 0v1.645h-1.647a1.094 1.094 0 000 2.188zm-18.951 23.74l4.317 3.403a2.33 2.33 0 002.897 0l4.317-3.403a5.093 5.093 0 001.953-4.024v-.73a4.828 4.828 0 00-7.718-3.863 4.826 4.826 0 00-7.717 3.864v.73a5.09 5.09 0 001.951 4.023zm.236-4.753a2.637 2.637 0 014.688-1.666 1.095 1.095 0 001.695 0 2.638 2.638 0 014.687 1.666v.73a2.92 2.92 0 01-1.118 2.306l-4.317 3.403a.156.156 0 01-.19 0l-4.334-3.403a2.922 2.922 0 01-1.119-2.307l.008-.73zM60.938 61.74a6.147 6.147 0 10-10.937-3.855 6.094 6.094 0 001.406 3.906 8.456 8.456 0 00-4.424 4.328 8.457 8.457 0 00-1.807-.998 6.144 6.144 0 00-4.343-9.988 6.094 6.094 0 00-4.634 1.634 6.166 6.166 0 00-1.956 4.497 6.094 6.094 0 001.406 3.907 8.302 8.302 0 00-1.733.989 8.437 8.437 0 00-4.583-4.428 6.148 6.148 0 00-4.342-9.988 6.094 6.094 0 00-4.634 1.635 6.167 6.167 0 00-1.952 4.506 6.094 6.094 0 001.406 3.906 8.476 8.476 0 00-5.171 7.812v3.533a2.656 2.656 0 002.656 2.657h13.19v.728a2.657 2.657 0 002.657 2.656h14.684a2.656 2.656 0 002.656-2.656v-.728h13.105a2.657 2.657 0 002.656-2.657v-3.525a8.447 8.447 0 00-5.306-7.87zM30.47 72.99v.615H17.285a.469.469 0 01-.469-.469v-3.525a6.292 6.292 0 014.31-5.98 1.74 1.74 0 00.662-2.904 3.96 3.96 0 012.755-6.802c.095 0 .194 0 .29.011a3.958 3.958 0 013.666 3.716v.223a3.967 3.967 0 01-1.184 2.833 1.71 1.71 0 00-.47 1.631 1.736 1.736 0 001.18 1.26 6.265 6.265 0 014.17 4.26 8.467 8.467 0 00-1.72 5.137l-.006-.005zm17.827 3.53a.469.469 0 01-.469.47H33.132a.469.469 0 01-.469-.47v-3.524a6.296 6.296 0 014.31-5.98 1.739 1.739 0 00.662-2.905 3.96 3.96 0 012.755-6.801 3.958 3.958 0 012.778 6.781 1.72 1.72 0 00-.469 1.633 1.738 1.738 0 001.18 1.26 6.277 6.277 0 014.417 6.012v3.525zm15.76-3.384a.469.469 0 01-.47.469H50.483v-.61a8.462 8.462 0 00-1.785-5.221 6.284 6.284 0 014.035-4.142 1.738 1.738 0 00.661-2.905 3.96 3.96 0 116.711-3.077v.225a3.969 3.969 0 01-1.184 2.833 1.706 1.706 0 00-.469 1.631 1.736 1.736 0 001.18 1.26 6.272 6.272 0 014.414 6.012l.01 3.525z" fill="#439539"/><path d="M41.91 51.3h.05a18.419 18.419 0 001.228-36.797v-3.125c.334.035.668.053 1.003.053 1.314 0 3.085-.274 4.511-1.489 1.72-1.464 2.477-3.857 2.241-7.115a1.094 1.094 0 00-1.01-1.013c-3.259-.236-5.652.52-7.117 2.243-.245.29-.461.604-.645.937a5.739 5.739 0 00-.645-.937c-1.464-1.72-3.86-2.479-7.116-2.243a1.094 1.094 0 00-1.004 1.02c-.235 3.257.518 5.65 2.242 7.115 1.426 1.214 3.197 1.489 4.51 1.489.312 0 .6-.016.85-.04v3.09c-1.794.09-3.566.443-5.259 1.048a18.561 18.561 0 00-6.91 4.424A18.418 18.418 0 0041.917 51.3h-.008zm2.572-45.82c.856-1.006 2.305-1.514 4.316-1.514 0 2.006-.505 3.453-1.505 4.31-1.169 1-2.813 1.027-3.75.946-.078-.93-.05-2.58.94-3.742zm-3.684 3.74c-.938.083-2.581.055-3.75-.937-1-.856-1.505-2.303-1.505-4.31 2.006 0 3.452.505 4.308 1.505 1.001 1.161 1.03 2.814.947 3.743zm14.544 14.47a16.13 16.13 0 012.85 9.235 16.354 16.354 0 01-.096 1.71c-.469-.761-.69-.836-.901-.907-.266-.089-1.741-.759-3.058-1.417a.47.47 0 01-.09-.056c-.027-.156.157-.611.238-.808.098-.22.175-.447.23-.681.14-.705-.32-1.433-.855-2.275-.197-.313-.525-.828-.565-.998-.218-1.302-1.946-1.875-3.775-2.488-2.514-.84-4.383-1.688-5.553-2.523l-.05-.038c.247-.27.52-.516.814-.734.612-.49 1.192-.952 1.19-1.647.022-.313.527-1.547 1.094-2.672a16.264 16.264 0 018.527 6.3zM30.39 21.495a16.164 16.164 0 0111.562-4.845H42a16.1 16.1 0 012.947.278c-.404.833-.976 2.116-1.084 2.892a7.84 7.84 0 01-.505.425c-.71.569-1.597 1.277-1.562 2.286.01.392.173.967.887 1.478 1.34.958 3.32 1.866 6.05 2.775.73.244 2.23.744 2.531 1.094.105.495.436 1.019.818 1.619.213.317.404.648.571.992a6.156 6.156 0 01-.1.255c-.265.651-.97 2.385.752 3.246 1.036.52 2.44 1.178 3.08 1.436.413.703.785 1.43 1.114 2.177a16.092 16.092 0 01-2.25 4.61 16.378 16.378 0 01-1.658 2 16.105 16.105 0 01-11.625 4.902h-.045a16.158 16.158 0 01-5.902-1.134 3.984 3.984 0 00.898-2.023 3.127 3.127 0 00-.56-2.22l-.13-.157-.186-.094c-.756-.38-1.547-1.228-1.99-1.772.295-1.159.673-3.137.134-4.098a1.377 1.377 0 00-.84-.675 7.302 7.302 0 01-3.867-2.628c-.043-1.963-1.917-5.499-2.764-7 .027-.072.05-.144.077-.216a16.136 16.136 0 013.6-5.603zm-4.399 8.45c.965 1.925 1.704 3.81 1.608 4.506l-.044.32.165.28c.062.108 1.545 2.585 4.856 3.613.067.519-.127 1.839-.453 2.995l-.122.433.26.367c.054.074 1.24 1.719 2.688 2.563.1.224.137.47.107.714-.055.453-.333.937-.813 1.42a16.196 16.196 0 01-8.516-14.319c.003-.97.092-1.938.264-2.892z" fill="#439539"/></svg>
